X:1
T: Miss H. Hunter of Blackness
C:Nathaniel Gow
R:Reel
Q: 232
K:D
M:4/4
L:1/8
|:g|fg ef d2 f2|Be ed cA Ag|fg ef d2 fd|Be ec d2 dg|
fg ef d2 f2|Be ed cA Ag|fg ef d2 fd|Be ec d2 dA|
F1/2E1/2D AF GE BG|F1/2E1/2D AF EB, CG|F1/2E1/2D AF GE BG|FD EC D2 DA|
F1/2E1/2D AF GE BG|F1/2E1/2D AF EB, CG|FD AF GA Bc|dB AF D2 D:|
